<?xml version="1.0" encoding="UTF-8"?>
<map version="1.10" tiledversion="1.10.2" orientation="orthogonal" renderorder="right-down" width="16" height="12" tilewidth="48" tileheight="48" infinite="0" nextlayerid="5" nextobjectid="4">
  <tileset firstgid="1" source="tiles.tsx"/>
  <properties>
    <property name="name" type="string" value="RPG Engine Fixture Map"/>
    <property name="author" type="string" value="RPG Engine QA"/>
    <property name="is_demo" type="bool" value="true"/>
    <property name="difficulty" type="int" value="3"/>
  </properties>
  <layer id="1" name="ground" width="16" height="12" visible="1" opacity="1.0">
    <data encoding="csv">
1,1,1,1,1,1,1,1,1,1,1,1,1,1,1,1,
1,1,1,1,1,1,1,1,1,1,1,1,1,1,1,1,
1,1,1,1,1,1,1,1,1,1,1,1,1,1,1,1,
1,1,2,2,2,2,1,1,1,1,1,1,1,1,1,1,
1,1,2,2,2,2,1,1,1,1,1,1,1,1,1,1,
1,1,2,2,2,2,1,1,1,1,1,1,1,1,1,1,
1,1,2,2,2,2,4,4,4,4,4,4,4,4,1,1,
1,1,1,1,1,1,4,1,1,1,1,1,1,1,1,1,
1,1,1,1,1,1,4,1,1,1,1,1,1,1,1,1,
1,1,1,1,1,1,1,1,1,1,1,1,1,1,1,1,
1,1,1,1,1,1,1,1,1,1,1,1,1,1,1,1,
1,1,1,1,1,1,1,1,1,1,1,1,1,1,1,1
    </data>
  </layer>
  <layer id="2" name="decor" width="16" height="12" visible="1" opacity="1.0">
    <data encoding="csv">
0,0,0,0,0,0,0,0,0,0,0,0,0,0,0,0,
0,3,0,0,0,0,0,0,0,0,0,0,0,0,3,0,
0,0,0,0,0,0,0,0,0,0,0,0,0,0,0,0,
0,0,0,0,0,0,0,0,0,0,3,0,0,0,0,0,
0,0,0,0,0,0,0,0,0,0,0,0,0,0,0,0,
0,0,0,0,0,0,0,0,0,0,0,0,0,0,0,0,
0,0,0,0,0,0,0,0,0,0,0,0,0,0,0,0,
0,0,0,0,0,0,0,0,0,0,0,0,0,0,0,0,
0,0,0,0,0,0,0,0,0,0,0,0,0,0,0,0,
0,0,0,3,0,0,0,0,0,0,0,0,3,0,0,0,
0,3,0,0,0,0,0,0,0,0,0,0,0,0,3,0,
0,0,0,0,0,0,0,0,0,0,0,0,0,0,0,0
    </data>
  </layer>
  <layer id="3" name="trees_above" width="16" height="12" visible="1" opacity="1.0">
    <properties>
      <property name="above_player" type="bool" value="true"/>
    </properties>
    <data encoding="csv">
0,0,0,0,0,0,0,0,0,0,0,0,0,0,0,0,
0,0,0,0,0,0,0,0,0,0,0,0,0,0,0,0,
0,0,0,0,0,0,0,0,0,0,0,0,0,0,0,0,
0,0,0,0,0,0,0,0,0,0,0,0,0,0,0,0,
0,0,0,0,0,0,0,0,0,0,0,0,0,0,0,0,
0,0,0,0,0,3,3,3,0,0,0,0,0,0,0,0,
0,0,0,0,0,3,0,3,0,0,0,0,0,0,0,0,
0,0,0,0,0,0,0,0,0,0,0,0,0,0,0,0,
0,0,0,0,0,0,0,0,0,0,0,0,0,0,0,0,
0,0,0,0,0,0,0,0,0,0,0,0,0,0,0,0,
0,0,0,0,0,0,0,0,0,0,0,0,0,0,0,0,
0,0,0,0,0,0,0,0,0,0,0,0,0,0,0,0
    </data>
  </layer>
  <objectgroup id="4" name="objects" visible="1" opacity="1.0">
    <object id="1" name="spawn" type="spawn" x="288" y="288">
      <properties>
        <property name="facing" type="string" value="down"/>
      </properties>
      <point/>
    </object>
    <object id="2" name="chest" type="treasure" x="48" y="96" width="32" height="32">
      <properties>
        <property name="locked" type="bool" value="true"/>
        <property name="coins" type="int" value="100"/>
      </properties>
    </object>
    <object id="3" name="guard_patrol" type="path" x="528" y="384" width="96" height="0">
      <properties>
        <property name="speed" type="int" value="48"/>
      </properties>
      <polyline points="0,0 96,0"/>
    </object>
  </objectgroup>
</map>
